fs/folder_mail_16_regular.svg

<svg viewBox="0 0 16 16" fill="none" xmlns="http://www.w3.org/2000/svg" height="1em" width="1em">
  <path d="M2 4V10C2 11.1046 2.89543 12 4 12H5V11H4C3.44772 11 3 10.5523 3 10V5.49998H5.75C5.87438 5.49998 5.9943 5.45362 6.08634 5.36995L7.5933 4H12C12.5523 4 13 4.44772 13 5V7H13.5C13.6712 7 13.8384 7.01722 14 7.05001V5C14 3.89543 13.1046 3 12 3H7.17539L6.06235 2.10957C5.97369 2.03864 5.86354 2 5.75 2H4C2.89543 2 2 2.89543 2 4ZM3 4C3 3.44772 3.44772 3 4 3H5.57461L6.44274 3.6945L5.5567 4.49998H3V4ZM6.0127 9.30359L10.5098 11.9268L15 9.50905V9.5C15 8.67157 14.3284 8 13.5 8H7.5C6.73804 8 6.10889 8.56798 6.0127 9.30359ZM15 10.6448L10.7371 12.9402C10.5837 13.0228 10.3984 13.0196 10.248 12.9319L6 10.4539V13.5C6 14.3284 6.67163 15 7.5 15H13.5C14.3284 15 15 14.3284 15 13.5V10.6448Z" fill="#212121"/>
</svg>

<svg viewBox="0 0 16 16" fill="none" xmlns="http://www.w3.org/2000/svg" height="1em" width="1em">
  <path d="M2 4v6a2 2 0 0 0 2 2h1v-1H4a1 1 0 0 1-1-1V5.5h2.75a.5.5 0 0 0 .336-.13L7.593 4H12a1 1 0 0 1 1 1v2h.5c.171 0 .338.017.5.05V5a2 2 0 0 0-2-2H7.175l-1.113-.89A.5.5 0 0 0 5.75 2H4a2 2 0 0 0-2 2Zm1 0a1 1 0 0 1 1-1h1.575l.868.695-.886.805H3V4Zm3.013 5.304 4.497 2.623L15 9.509V9.5A1.5 1.5 0 0 0 13.5 8h-6a1.5 1.5 0 0 0-1.487 1.304ZM15 10.644l-4.263 2.296a.5.5 0 0 1-.489-.008L6 10.454V13.5A1.5 1.5 0 0 0 7.5 15h6a1.5 1.5 0 0 0 1.5-1.5v-2.855Z" fill="#212121"/>
</svg>
